src/pos-icons/voicemail.svg

<svg height="24" viewBox="0 0 24 24" width="24" xmlns="http://www.w3.org/2000/svg"><path d="m18.5 15a3.5 3.5 0 0 1 -3.5-3.5 3.5 3.5 0 0 1 3.5-3.5 3.5 3.5 0 0 1 3.5 3.5 3.5 3.5 0 0 1 -3.5 3.5m-13 0a3.5 3.5 0 0 1 -3.5-3.5 3.5 3.5 0 0 1 3.5-3.5 3.5 3.5 0 0 1 3.5 3.5 3.5 3.5 0 0 1 -3.5 3.5m13-9a5.5 5.5 0 0 0 -5.5 5.5c0 1.33.47 2.55 1.26 3.5h-4.52c.79-.95 1.26-2.17 1.26-3.5a5.5 5.5 0 0 0 -5.5-5.5 5.5 5.5 0 0 0 -5.5 5.5 5.5 5.5 0 0 0 5.5 5.5h13a5.5 5.5 0 0 0 5.5-5.5 5.5 5.5 0 0 0 -5.5-5.5z"/></svg>

<?xml version="1.0" encoding="UTF-8"?><!DOCTYPE svg PUBLIC "-//W3C//DTD SVG 1.1//EN" "http://www.w3.org/Graphics/SVG/1.1/DTD/svg11.dtd"><svg xmlns="http://www.w3.org/2000/svg" xmlns:xlink="http://www.w3.org/1999/xlink" version="1.1" id="mdi-voicemail" width="24" height="24" viewBox="0 0 24 24"><path d="M18.5,15A3.5,3.5 0 0,1 15,11.5A3.5,3.5 0 0,1 18.5,8A3.5,3.5 0 0,1 22,11.5A3.5,3.5 0 0,1 18.5,15M5.5,15A3.5,3.5 0 0,1 2,11.5A3.5,3.5 0 0,1 5.5,8A3.5,3.5 0 0,1 9,11.5A3.5,3.5 0 0,1 5.5,15M18.5,6A5.5,5.5 0 0,0 13,11.5C13,12.83 13.47,14.05 14.26,15H9.74C10.53,14.05 11,12.83 11,11.5A5.5,5.5 0 0,0 5.5,6A5.5,5.5 0 0,0 0,11.5A5.5,5.5 0 0,0 5.5,17H18.5A5.5,5.5 0 0,0 24,11.5A5.5,5.5 0 0,0 18.5,6Z" /></svg>
